style-guide/assets/xd-icons-external.svg

<svg viewBox="0 0 24 24" xmlns="http://www.w3.org/2000/svg" xmlns:xlink="http://www.w3.org/1999/xlink">
  <path d="M10 15a.999.999 0 0 1-.707-1.707L19.586 3H14a1 1 0 1 1 0-2h8.003a.988.988 0 0 1 .704.293.998.998 0 0 1 .293.704V10a1 1 0 1 1-2 0V4.414L10.707 14.707A.997.997 0 0 1 10 15m8 8H2a1 1 0 0 1-1-1V6a1 1 0 0 1 1-1h9a1 1 0 1 1 0 2H3v14h14v-8a1 1 0 1 1 2 0v9a1 1 0 0 1-1 1"/>
</svg>

<?xml version="1.0" encoding="UTF-8"?>
<svg width="24px" height="24px" viewBox="0 0 24 24" version="1.1" xmlns="http://www.w3.org/2000/svg" xmlns:xlink="http://www.w3.org/1999/xlink">
    <!-- Generator: Sketch 51.3 (57544) - http://www.bohemiancoding.com/sketch -->
    <title>external link</title>
    <desc>Created with Sketch.</desc>
    <defs>
        <path d="M10,15 C9.744,15 9.488,14.902 9.293,14.707 C8.902,14.316 8.902,13.684 9.293,13.293 L19.586,3 L14,3 C13.448,3 13,2.553 13,2 C13,1.447 13.448,1 14,1 L22,1 L22.003,1 C22.137,1 22.265,1.027 22.381,1.075 C22.5,1.124 22.611,1.197 22.707,1.293 C22.803,1.389 22.876,1.5 22.925,1.619 C22.973,1.735 23,1.863 23,1.997 L23,2 L23,10 C23,10.553 22.552,11 22,11 C21.448,11 21,10.553 21,10 L21,4.414 L10.707,14.707 C10.512,14.902 10.256,15 10,15 M18,23 L2,23 C1.448,23 1,22.553 1,22 L1,6 C1,5.447 1.448,5 2,5 L11,5 C11.552,5 12,5.447 12,6 C12,6.553 11.552,7 11,7 L3,7 L3,21 L17,21 L17,13 C17,12.447 17.448,12 18,12 C18.552,12 19,12.447 19,13 L19,22 C19,22.553 18.552,23 18,23" id="path-1"></path>
    </defs>
    <g id="external-link" stroke="none" stroke-width="1" fill="none" fill-rule="evenodd">
        <mask id="mask-2" fill="white">
            <use xlink:href="#path-1"></use>
        </mask>
        <use id="icons/24px/External-Link" fill="#000000" xlink:href="#path-1"></use>
    </g>
</svg>
